X: 502
T: Crook Brothers Breakdown
C:The Crook Brothers
B: jims roots
M:2/4
L:1/8
Q: 1/4=100
K:D
V:1 
 e2 |: "D"f2a2 a2 aa | b2a2 fe d2 | fefg a2a2  | "G"Jb4- b4 |
  "D"f2a2 a2 aa | b2a2 fe d2 | fe d2 "A"edBc | "D"d4- d4 :|
|: "Bm"F2B2 BABB | A2B2 B2A2 | F2B2 BABB | ABBd B2A2 |
        F2B2 BABB | A2B2 B2A2 | "D"FEDF "A"EDB,C | "D"D4- D4 :|
% abcbook-tune_id 6298c245f1ed82518a93fe65


% abcbook-boost 0
% abcbook-tablature 
% abcbook-transpose 
% abcbook-lastupdated 1654178373877
% abcbook-soundfonts 
% abcbook-repeats 1


